svg/storm.svg

<svg xmlns="http://www.w3.org/2000/svg" xmlns:xlink="http://www.w3.org/1999/xlink" version="1.1" viewBox="70.08 3.8 372.45 500.24"><g id="surface1"><path style="stroke:none;fill-rule:nonzero;fill:#333d4d;fill-opacity:1" d="M 257.242188 22.339844 C 239.761719 22.359375 77.375 263.554688 82.082031 325.566406 C 86.792969 387.578125 149.277344 498.371094 252.292969 498.367188 C 355.300781 498.359375 429.289062 432.710938 431.164062 336.128906 C 433.035156 239.546875 274.726562 22.320312 257.242188 22.339844 Z M 257.242188 22.339844"/><path style="stroke:none;fill-rule:nonzero;fill:#5f6e82;fill-opacity:1" d="M 232.351562 488.953125 C 185.785156 476.953125 169.363281 465.796875 169.363281 465.796875 C 151.847656 453.984375 136.335938 440.757812 126.628906 427.148438 C 119.609375 417.300781 109.757812 396.457031 106.222656 385.476562 C 87.140625 325.628906 111.472656 257.933594 148.210938 218.003906 C 171.136719 194.121094 201.761719 185.65625 236.738281 181.125 C 277.5 175.84375 314.824219 183.570312 340.992188 209.742188 C 358.089844 223.984375 361.789062 235.863281 361.507812 257.824219 C 361.59375 266.78125 361.460938 267.609375 359.640625 269.433594 C 357.949219 271.125 356.898438 271.371094 351.902344 271.230469 C 348.605469 271.136719 341.136719 269.777344 334.511719 268.066406 C 320.609375 264.472656 315.746094 263.703125 311.71875 264.457031 C 309.03125 264.960938 308.234375 265.808594 304.664062 271.957031 C 302.449219 275.765625 299.671875 279.519531 298.488281 280.292969 C 295.304688 282.378906 290.246094 281.8125 281.335938 278.371094 C 267.539062 273.042969 261.566406 273.324219 255.921875 279.570312 C 252.09375 283.808594 250.132812 287.679688 247.425781 296.332031 C 243.105469 310.128906 242.710938 323.375 246.316406 333.59375 C 252.226562 346.402344 261.003906 356.84375 270.789062 366.621094 C 278.359375 373.941406 291.070312 384.566406 326.773438 410.667969 C 356.019531 432.050781 373.152344 442.925781 373.152344 446.214844 C 373.152344 449.457031 354.078125 461.546875 337.300781 469.640625 C 323.152344 476.46875 309.769531 480.484375 295.074219 484.355469 C 272.949219 489.03125 250.527344 490.519531 232.351562 488.953125 Z M 232.351562 488.953125"/><path style="stroke:none;fill-rule:nonzero;fill:#2a323d;fill-opacity:1" d="M 242.492188 503.84375 C 241.347656 503.710938 237.460938 503.3125 233.859375 502.953125 C 220.265625 501.601562 204.835938 498.203125 191.253906 493.578125 C 124.28125 470.765625 78.941406 414.871094 71.402344 345.828125 C 68.8125 322.117188 69.949219 304.617188 75.523438 282.421875 C 87.816406 233.464844 123.617188 165.65625 173.902344 96.078125 C 207.039062 50.226562 244.507812 7.660156 254.9375 4.027344 C 257.710938 3.058594 260.953125 5.074219 270.050781 13.425781 C 291.769531 33.359375 328.949219 79.527344 358.914062 123.761719 C 413.332031 204.089844 442.53125 272.304688 442.53125 319.09375 C 442.53125 370.796875 423.09375 418.289062 387.976562 452.414062 C 359.378906 480.195312 323.867188 496.976562 281.488281 502.726562 C 274.746094 503.644531 247.585938 504.417969 242.492188 503.84375 Z M 292.824219 484.832031 C 308.773438 480.589844 319.539062 476.71875 332.984375 470.398438 C 350.183594 462.3125 369.300781 449.539062 369.300781 446.128906 C 369.300781 445.605469 367.894531 443.683594 366.175781 441.855469 C 359.761719 435.039062 353.6875 431.179688 302.484375 393.167969 C 287.855469 381.589844 271.894531 369.78125 259.125 353.652344 C 257.179688 336.425781 259.257812 306.125 273.976562 295.734375 C 276.25 294.289062 277.277344 294.03125 280.710938 294.03125 C 284.796875 294.03125 287.800781 294.847656 300.242188 299.335938 C 310.550781 303.054688 312.929688 301.878906 319.980469 289.570312 C 322.457031 285.25 325.378906 283.339844 329.535156 283.324219 C 331.078125 283.320312 338.253906 284.78125 345.488281 286.578125 C 367.757812 292.101562 372.382812 292.242188 374.84375 287.484375 C 376.460938 284.359375 375.980469 269.304688 374.074219 263.371094 C 372.070312 257.132812 368.027344 249.511719 363.628906 243.679688 C 361.46875 240.816406 359.214844 237.515625 358.613281 236.335938 C 356.988281 233.15625 347.378906 220.546875 342.714844 215.484375 C 324.792969 196.011719 298.832031 183.5625 269.292969 180.261719 C 261.578125 179.402344 242.828125 179.886719 234.273438 181.167969 C 191.253906 187.609375 158.316406 208.371094 135.035156 243.722656 C 107.253906 290.554688 95.402344 338.613281 110.691406 385.203125 C 114.003906 395.152344 122.628906 412.863281 128.628906 422.03125 C 137.984375 436.324219 149.835938 448.121094 167.925781 461.148438 C 170.789062 463.214844 174.605469 465.632812 176.40625 466.53125 C 178.207031 467.425781 181.023438 469.066406 182.660156 470.183594 C 190.296875 475.378906 209.289062 482.074219 223.441406 484.5625 C 239.226562 488.03125 248.792969 487.40625 259.78125 487.445312 C 271.261719 487.613281 281.769531 487.167969 292.824219 484.832031 Z M 292.824219 484.832031"/></g></svg>

<svg xmlns="http://www.w3.org/2000/svg" viewBox="70.08 3.8 372.45 500.24"><path d="M257.242 22.34c-17.48.02-179.867 241.215-175.16 303.226 4.711 62.012 67.195 172.805 170.211 172.801 103.008-.008 176.996-65.656 178.871-162.238 1.871-96.582-156.437-313.809-173.922-313.79m0 0" style="stroke:none;fill-rule:nonzero;fill:#333d4d;fill-opacity:1"/><path d="M232.352 488.953c-46.567-12-62.989-23.156-62.989-23.156-17.515-11.813-33.027-25.04-42.734-38.649-7.02-9.847-16.871-30.691-20.406-41.671-19.082-59.848 5.25-127.543 41.988-167.473 22.926-23.883 53.55-32.348 88.527-36.879 40.762-5.281 78.086 2.445 104.254 28.617 17.098 14.242 20.797 26.121 20.516 48.082.086 8.957-.047 9.785-1.867 11.61-1.692 1.691-2.743 1.937-7.739 1.796-3.297-.093-10.765-1.453-17.39-3.164-13.903-3.593-18.766-4.363-22.793-3.609-2.688.504-3.485 1.352-7.055 7.5-2.215 3.809-4.992 7.563-6.176 8.336-3.183 2.086-8.242 1.52-17.152-1.922-13.797-5.328-19.77-5.047-25.414 1.2-3.828 4.238-5.79 8.109-8.496 16.761-4.32 13.797-4.715 27.043-1.11 37.262 5.91 12.808 14.688 23.25 24.473 33.027 7.57 7.32 20.281 17.945 55.984 44.047 29.247 21.383 46.38 32.258 46.38 35.547 0 3.242-19.075 15.332-35.852 23.426-14.149 6.828-27.531 10.843-42.227 14.714-22.125 4.676-44.547 6.165-62.722 4.598m0 0" style="stroke:none;fill-rule:nonzero;fill:#5f6e82;fill-opacity:1"/><path d="M242.492 503.844a895 895 0 0 0-8.633-.89c-13.593-1.352-29.023-4.75-42.605-9.376-66.973-22.812-112.313-78.707-119.852-147.75-2.59-23.71-1.453-41.21 4.121-63.406 12.293-48.957 48.094-116.766 98.38-186.344 33.136-45.851 70.605-88.418 81.035-92.05 2.773-.97 6.015 1.046 15.113 9.398 21.719 19.933 58.898 66.101 88.863 110.336 54.418 80.328 83.617 148.543 83.617 195.332 0 51.703-19.437 99.195-54.554 133.32-28.598 27.781-64.11 44.563-106.489 50.313-6.742.918-33.902 1.691-38.996 1.117m50.332-19.012c15.95-4.242 26.715-8.113 40.16-14.434 17.2-8.086 36.317-20.859 36.317-24.27 0-.523-1.406-2.444-3.125-4.273-6.414-6.816-12.488-10.675-63.692-48.687-14.629-11.578-30.59-23.387-43.359-39.516-1.945-17.226.133-47.527 14.852-57.918 2.273-1.445 3.3-1.703 6.734-1.703 4.086 0 7.09.817 19.531 5.305 10.309 3.719 12.688 2.543 19.738-9.766 2.477-4.32 5.399-6.23 9.555-6.246 1.543-.004 8.719 1.457 15.953 3.254 22.27 5.524 26.895 5.664 29.356.906 1.617-3.125 1.136-18.18-.77-24.113-2.004-6.238-6.047-13.86-10.445-19.691-2.16-2.864-4.414-6.164-5.016-7.344-1.625-3.18-11.234-15.79-15.898-20.852-17.922-19.472-43.883-31.922-73.422-35.222-7.715-.86-26.465-.375-35.02.906-43.02 6.441-75.957 27.203-99.238 62.555-27.781 46.832-39.633 94.89-24.344 141.48 3.313 9.95 11.938 27.66 17.938 36.828 9.355 14.293 21.207 26.09 39.297 39.117 2.863 2.067 6.68 4.485 8.48 5.383 1.801.895 4.617 2.535 6.254 3.653 7.637 5.195 26.63 11.89 40.781 14.378 15.786 3.47 25.352 2.844 36.34 2.883 11.48.168 21.989-.277 33.043-2.613m0 0" style="stroke:none;fill-rule:nonzero;fill:#2a323d;fill-opacity:1"/></svg>
